X: 2384
M: C
L: 1/8
K: F	% and Dm
uc2 !segno!|:\
vAcac Acac | Bcgc (Ac)a2 | b2a>b g>af>g |\
[1,3 e>fd>e c2B2 :|[2,4 e>d (3cde f2 H:|
a>Ag>A f>Ae>A | d>Ad>f a>fd>A | ^c>Ac>e a>ec>A |\
[1,3 d>Ad>f a>fd>A :|[2,4 d>Af>e "_D.C."d2 :|


